source/img/icon-phone.svg

<svg width="20" height="19" viewBox="0 0 20 19" fill="none" xmlns="http://www.w3.org/2000/svg">
<path d="M10.0408 0C6.46361 0 2.90684 0.608386 1.58197 1.8155C0.624506 2.9164 0.0701613 4.28212 0.00231714 5.70724C-0.000772379 5.76193 -0.000772379 5.81673 0.00231714 5.87141C0.00231714 6.08143 0.0903626 6.28284 0.247084 6.43135C0.403806 6.57985 0.616367 6.66328 0.838005 6.66328L4.07884 6.4122H4.16037C4.26878 6.41094 4.37587 6.38946 4.47551 6.34898C4.57516 6.3085 4.66541 6.24982 4.74112 6.17628C4.81683 6.10275 4.87651 6.0158 4.91676 5.92041C4.95701 5.82502 4.97703 5.72305 4.97568 5.62033V4.04625C4.97433 3.93131 4.99706 3.81725 5.04255 3.71069C5.08804 3.60412 5.15539 3.50717 5.2407 3.42544C5.326 3.34371 5.42757 3.27882 5.53952 3.23454C5.65148 3.19026 5.77159 3.16746 5.8929 3.16747H14.046C14.2919 3.16747 14.5278 3.26006 14.7017 3.42486C14.8757 3.58966 14.9734 3.81318 14.9734 4.04625V5.60102C14.9733 5.80773 15.0585 6.00627 15.2109 6.15423C15.3632 6.30219 15.5706 6.38784 15.7887 6.39288H15.8804L19.162 6.64396C19.2717 6.64396 19.3804 6.62348 19.4818 6.58369C19.5832 6.54389 19.6753 6.48556 19.7529 6.41203C19.8305 6.3385 19.8921 6.2512 19.9341 6.15513C19.9761 6.05906 19.9977 5.95609 19.9977 5.8521C20.0008 5.79741 20.0008 5.74261 19.9977 5.68793C19.9242 4.27608 19.378 2.92311 18.4384 1.82516C17.1951 0.608386 13.6179 0 10.0408 0ZM10.0408 10.3039C9.7102 10.3039 9.38705 10.3968 9.1122 10.5708C8.83734 10.7449 8.62312 10.9922 8.49662 11.2816C8.37011 11.571 8.33701 11.8894 8.4015 12.1966C8.46599 12.5039 8.62518 12.7861 8.85892 13.0075C9.09267 13.229 9.39048 13.3799 9.7147 13.441C10.0389 13.5021 10.375 13.4707 10.6804 13.3509C10.9858 13.231 11.2468 13.028 11.4305 12.7676C11.6141 12.5071 11.7121 12.2009 11.7121 11.8877C11.7135 11.6793 11.6712 11.4728 11.5877 11.2801C11.5042 11.0874 11.3811 10.9123 11.2256 10.7649C11.0702 10.6176 10.8854 10.501 10.682 10.4219C10.4786 10.3427 10.2606 10.3027 10.0408 10.3039ZM8.78723 6.75985V5.79416C8.78723 5.53804 8.67986 5.29241 8.48874 5.11131C8.29761 4.9302 8.03839 4.82846 7.7681 4.82846C7.49781 4.82846 7.23859 4.9302 7.04747 5.11131C6.85634 5.29241 6.74897 5.53804 6.74897 5.79416V6.75985L1.02145 12.4478C0.818967 12.6306 0.658375 12.8511 0.54967 13.0953C0.440965 13.3395 0.386473 13.6023 0.389587 13.8673V15.4511C0.389579 15.872 0.565344 16.2758 0.878498 16.5744C1.19165 16.8729 1.61675 17.0419 2.06096 17.0445H2.47881V18.0102C2.47881 18.1402 2.50583 18.2689 2.55832 18.389C2.61082 18.5091 2.68777 18.6182 2.78477 18.7101C2.88177 18.802 2.99692 18.8749 3.12366 18.9247C3.2504 18.9744 3.38624 19 3.52342 19C3.6606 19 3.79643 18.9744 3.92317 18.9247C4.04991 18.8749 4.16507 18.802 4.26207 18.7101C4.35907 18.6182 4.43601 18.5091 4.48851 18.389C4.54101 18.2689 4.56803 18.1402 4.56803 18.0102V17.0445H15.4727V18.0102C15.4727 18.2727 15.5828 18.5245 15.7787 18.7101C15.9746 18.8957 16.2403 19 16.5173 19C16.7944 19 17.0601 18.8957 17.256 18.7101C17.4519 18.5245 17.562 18.2727 17.562 18.0102V17.0445H17.9798C18.2001 17.0445 18.4183 17.0032 18.6218 16.923C18.8252 16.8428 19.0099 16.7253 19.1653 16.5772C19.3206 16.4291 19.4435 16.2534 19.5269 16.0601C19.6103 15.8669 19.6525 15.6599 19.6512 15.4511V13.8673C19.6556 13.603 19.6027 13.3406 19.4958 13.0964C19.3888 12.8523 19.2301 12.6315 19.0295 12.4478L13.3835 6.75985V5.79416C13.3835 5.53163 13.2735 5.27987 13.0776 5.09424C12.8817 4.90861 12.616 4.80432 12.3389 4.80432C12.0619 4.80432 11.7962 4.90861 11.6003 5.09424C11.4044 5.27987 11.2943 5.53163 11.2943 5.79416V6.75985H8.78723ZM10.0408 8.69123C10.7019 8.69123 11.3482 8.877 11.8979 9.22505C12.4476 9.57309 12.8761 10.0678 13.1291 10.6466C13.3821 11.2253 13.4483 11.8622 13.3193 12.4766C13.1903 13.0911 12.8719 13.6555 12.4044 14.0984C11.937 14.5414 11.3413 14.8431 10.6929 14.9653C10.0445 15.0875 9.37236 15.0248 8.76155 14.7851C8.15074 14.5453 7.62867 14.1393 7.26137 13.6185C6.89406 13.0976 6.69801 12.4852 6.69801 11.8587C6.69801 11.0186 7.05019 10.213 7.67708 9.61896C8.30397 9.02495 9.15421 8.69123 10.0408 8.69123Z" fill="#D22856"/>
</svg>

<svg width="20" height="19" fill="none" xmlns="http://www.w3.org/2000/svg"><path d="M10.04 0C6.465 0 2.908.608 1.583 1.815a6.392 6.392 0 00-1.58 3.892c-.003.055-.003.11 0 .164 0 .21.088.412.245.56a.86.86 0 00.591.232l3.24-.25h.082a.865.865 0 00.581-.237.78.78 0 00.176-.256.746.746 0 00.059-.3V4.046a.83.83 0 01.067-.335.867.867 0 01.198-.286.922.922 0 01.299-.19.961.961 0 01.353-.068h8.153c.246 0 .482.093.656.258a.856.856 0 01.271.621v1.555a.77.77 0 00.238.553c.152.148.36.234.578.239h.091l3.282.251a.876.876 0 00.59-.232.79.79 0 00.182-.257.756.756 0 00.064-.303 1.45 1.45 0 000-.164 6.455 6.455 0 00-1.56-3.863C17.195.608 13.618 0 10.041 0zm0 10.304c-.33 0-.653.093-.928.267-.275.174-.489.421-.615.71-.127.29-.16.608-.095.916.064.307.223.59.457.81.234.222.531.373.856.434.324.061.66.03.965-.09.306-.12.567-.323.75-.583a1.526 1.526 0 00-.204-2.003 1.669 1.669 0 00-.544-.343 1.742 1.742 0 00-.641-.118zM8.788 6.76v-.966a.94.94 0 00-.298-.683 1.048 1.048 0 00-.72-.283c-.271 0-.53.102-.722.283a.94.94 0 00-.298.683v.966l-5.728 5.688a1.932 1.932 0 00-.471.647 1.843 1.843 0 00-.16.772v1.584c0 .421.175.825.488 1.123a1.73 1.73 0 001.183.47h.418v.966c0 .13.027.259.08.379.052.12.129.23.226.321.097.092.212.165.339.215a1.096 1.096 0 001.138-.215.988.988 0 00.227-.321.945.945 0 00.079-.379v-.966h10.905v.966c0 .263.11.514.306.7.196.186.461.29.738.29.277 0 .543-.104.739-.29a.964.964 0 00.306-.7v-.966h.418c.22 0 .438-.04.642-.121.203-.08.388-.198.543-.346a1.58 1.58 0 00.362-.517c.083-.193.125-.4.124-.609v-1.584a1.844 1.844 0 00-.155-.77 1.933 1.933 0 00-.466-.65L13.382 6.76v-.966a.964.964 0 00-.305-.7 1.075 1.075 0 00-.74-.29c-.276 0-.542.105-.738.29a.964.964 0 00-.306.7v.966H8.787zm1.254 1.931c.66 0 1.307.186 1.857.534.55.348.978.843 1.231 1.422.253.578.32 1.215.19 1.83a3.12 3.12 0 01-.915 1.621 3.403 3.403 0 01-1.711.867c-.649.123-1.32.06-1.931-.18a3.312 3.312 0 01-1.5-1.167 3.05 3.05 0 01-.564-1.76c0-.84.352-1.645.98-2.239a3.439 3.439 0 012.363-.928z" fill="#D22856"/></svg>
